ios/assets/icons/hr-state-3.svg

<svg xmlns="http://www.w3.org/2000/svg" viewBox="0 0 26 14" height="14" width="26"><title>hr-state-3.svg</title><g><path fill="#ffffff" d="M3.04,0.59L23.04,0.59A2.5,2.5,0,0,1,25.54,3.09L25.54,11.09A2.5,2.5,0,0,1,23.04,13.59L3.04,13.59A2.5,2.5,0,0,1,0.54,11.09L0.54,3.09A2.5,2.5,0,0,1,3.04,0.59"></path><path fill="#b3b3b3" d="M23,1.09a2,2,0,0,1,2,2v8a2,2,0,0,1-2,2H3a2,2,0,0,1-2-2v-8a2,2,0,0,1,2-2H23m0-1H3a3,3,0,0,0-3,3v8a3,3,0,0,0,3,3H23a3,3,0,0,0,3-3v-8a3,3,0,0,0-3-3Z"></path></g></svg>

<?xml version="1.0" encoding="utf-8"?>
<!-- Generator: Adobe Illustrator 17.1.0, SVG Export Plug-In . SVG Version: 6.00 Build 0)  -->
<!DOCTYPE svg PUBLIC "-//W3C//DTD SVG 1.1//EN" "http://www.w3.org/Graphics/SVG/1.1/DTD/svg11.dtd">
<svg version="1.1" id="Layer_1" xmlns="http://www.w3.org/2000/svg" xmlns:xlink="http://www.w3.org/1999/xlink" x="0px" y="0px"
	 width="26px" height="14px" viewBox="0 0 26 14" enable-background="new 0 0 26 14" xml:space="preserve">
<title>hr-state</title>
<g>
	<path fill="#6979bf" d="M3,0.5h20c1.4,0,2.5,1.1,2.5,2.5v8c0,1.4-1.1,2.5-2.5,2.5H3c-1.4,0-2.5-1.1-2.5-2.5V3
		C0.5,1.6,1.6,0.5,3,0.5z"/>
	<path fill="#FFFFFF" d="M23,1c1.1,0,2,0.9,2,2c0,0,0,0.1,0,0.1v8c0,1-0.8,1.9-1.9,1.9c0,0-0.1,0-0.1,0H3c-1.1,0-2-0.8-2-1.9v-8
		C1,2,1.9,1.1,3,1H23 M23,0H3C1.3,0.1,0,1.4,0,3.1v8C0,12.7,1.4,14,3,14h20c1.6,0.1,2.9-1.2,3-2.8c0,0,0-0.1,0-0.1v-8
		C26,1.4,24.7,0.1,23,0C23.1,0,23,0,23,0L23,0z"/>
</g>
</svg>
